src/svg/gitops-cd.svg

<svg fill="none" height="296" viewBox="0 0 299 296" width="299" xmlns="http://www.w3.org/2000/svg" xmlns:xlink="http://www.w3.org/1999/xlink"><linearGradient id="a"><stop offset="0" stop-color="#eb5795"/><stop offset="1" stop-color="#eb5795" stop-opacity="0"/></linearGradient><linearGradient id="b" gradientUnits="userSpaceOnUse" x1="148.028" x2="279.72" xlink:href="#a" y1="144.788" y2="276.48"/><linearGradient id="c" gradientUnits="userSpaceOnUse" x1="183.87" x2="255.144" xlink:href="#a" y1="182.047" y2="253.321"/><linearGradient id="d" gradientUnits="userSpaceOnUse" x1="174.583" x2="246.716" xlink:href="#a" y1="168.511" y2="240.644"/><linearGradient id="e" gradientUnits="userSpaceOnUse" x1="164.04" x2="235.314" xlink:href="#a" y1="166.466" y2="237.74"/><linearGradient id="f" gradientUnits="userSpaceOnUse" x1="44417.9" x2="48501.3" y1="24478.3" y2="20394.9"><stop offset="0" stop-color="#d6e6fd"/><stop offset="1" stop-color="#d2e3fd"/></linearGradient><linearGradient id="g" gradientUnits="userSpaceOnUse" x1="78.3843" x2="83.9169" y1="67.8569" y2="86.8688"><stop offset="0" stop-color="#5e6294"/><stop offset="1" stop-color="#878bb2"/></linearGradient><linearGradient id="h"><stop offset="0" stop-color="#5c75c9"/><stop offset="1" stop-color="#2e419b"/></linearGradient><linearGradient id="i" gradientUnits="userSpaceOnUse" x1="165.863" x2="68.6036" xlink:href="#h" y1="229.925" y2="132.666"/><linearGradient id="j" gradientUnits="userSpaceOnUse" x1="33207.5" x2="20402.4" xlink:href="#h" y1="24757.8" y2="11952.6"/><linearGradient id="k" gradientUnits="userSpaceOnUse" x1="16781.9" x2="18099" y1="344.55" y2="1661.68"><stop offset="0" stop-color="#373282"/><stop offset=".44" stop-color="#323a8f"/><stop offset="1" stop-color="#2e419b"/></linearGradient><linearGradient id="l" gradientUnits="userSpaceOnUse" x1="24165.9" x2="17955.8" xlink:href="#h" y1="18502" y2="12291.9"/><linearGradient id="m" gradientUnits="userSpaceOnUse" x1="29315" x2="20588.7" xlink:href="#h" y1="22861.6" y2="14135.3"/><linearGradient id="n" gradientUnits="userSpaceOnUse" x1="185.437" x2="23.0931" y1="209.777" y2="47.4329"><stop offset="0" stop-color="#5c75c9"/><stop offset="1" stop-color="#d2e3fd"/></linearGradient><mask id="o" height="31" maskUnits="userSpaceOnUse" width="31" x="62" y="61"><path d="m88.2841 87.3993c5.9828-5.9828 5.9828-15.683 0-21.6658-5.9829-5.9829-15.683-5.9829-21.6658 0-5.9829 5.9828-5.9829 15.683 0 21.6658 5.9828 5.9829 15.6829 5.9829 21.6658 0z" fill="#fff"/></mask><g stroke-linecap="round"><path d="m216.688 213.448 63.032 63.032" opacity=".9" stroke="url(#b)" stroke-width="37.3291"/><path d="m190.483 188.66 58.783 58.783" opacity=".9" stroke="url(#c)" stroke-width="3.00476"/><path d="m181.276 175.204 59.491 59.491" opacity=".9" stroke="url(#d)" stroke-width="3.00476"/><path d="m170.653 173.079 58.783 58.783" opacity=".9" stroke="url(#e)" stroke-width="3.00476"/></g><path d="m237.666 127.103-109.672 109.672-42.0701-58.467c-9.2369-12.875-13.5995-28.613-12.3095-44.406s8.1486-30.615 19.3525-41.8201c11.2051-11.2064 26.0271-18.0672 41.8221-19.3584 15.794-1.2911 31.534 3.0714 44.41 12.3092z" fill="#5c74c6"/><path d="m108.339 56.9547 108.498 108.4973-50.493 50.494-108.4982-108.498c-10.2189-10.2209-17.7741-22.7929-22.003-36.6134l-11.6072-37.9683c-.4043-1.3224-.4412-2.7299-.1067-4.0717.3345-1.3417 1.0278-2.5671 2.0056-3.5449s2.2032-1.6711 3.545-2.0057c1.3417-.3345 2.7492-.2976 4.0716.1068l37.9745 11.6009c13.8206 4.2289 26.3926 11.7841 36.6134 22.003z" fill="url(#f)"/><g mask="url(#o)"><circle cx="78.5833" cy="78.1763" fill="#fff" r="17.027" transform="matrix(.70710678 -.70710678 .70710678 .70710678 -32.262476 78.464092)"/><circle cx="78.3843" cy="77.4937" fill="url(#g)" opacity=".2" r="9.6367" transform="matrix(.70710678 -.70710678 .70710678 .70710678 -31.838091 78.123449)"/><path clip-rule="evenodd" d="m86.8909 86.0002c4.698-4.698 4.698-12.3151 0-17.0131-4.6981-4.6981-12.3152-4.6981-17.0132 0-4.6981 4.698-4.6981 12.3151 0 17.0131 4.698 4.6981 12.3151 4.6981 17.0132 0zm-1.6925-1.6924c3.7634-3.7633 3.7634-9.865 0-13.6283-3.7633-3.7634-9.8649-3.7634-13.6283 0-3.7634 3.7633-3.7634 9.865 0 13.6283 3.7634 3.7634 9.865 3.7634 13.6283 0z" fill="#5e6294" fill-rule="evenodd" opacity=".14"/><path d="m78.0607 84.9582c-1.3358.5283-2.9161.2523-3.9965-.8282-1.0103-1.0102-1.3173-2.4574-.921-3.7333-2.3676-2.2516-2.4206-6.019-.1034-8.3362 2.3173-2.3173 6.0846-2.2642 8.3363.1034 1.2758-.3963 2.723-.0893 3.7333.9209 1.0804 1.0805 1.3565 2.6608.8281 3.9966l3.8904 4.1946c1.0899 1.0029 1.4922.7742 3.0056-.0864.146-.083.3024-.172.4707-.2662-.7542 1.2012-1.3377 1.8461-1.8409 2.116l1.7964 1.9368c1.6074 1.9211 1.6273 1.9095 3.128 1.0285.2041-.1197.4355-.2556.7021-.4049-1.9781 3.1503-3.1728 2.0223-4.2533 1.0022-.2158-.2038-.4271-.4032-.6392-.5634l-.0955.0955c.0649.0764.128.1507.1892.2227l.0015.0019c1.3493 1.5885 1.8124 2.1336 2.2653 2.1253.2367-.0043.4706-.1598.8267-.3965.3724-.2474.8783-.5837 1.6608-.9289-2.6026 3.4445-3.5606 2.4818-5.1918.8428-.2538-.255-.5239-.5264-.8189-.8001l-.0908.0908c3.0119 3.2922 3.2147 3.1693 4.5499 2.3601.3627-.2198.8091-.4903 1.418-.7567-2.7388 3.4235-3.7377 2.6712-5.2765 1.5123-.2726-.2053-.5621-.4233-.8812-.6332.2098.3192.4279.6087.6332.8813 1.1589 1.5387 1.9112 2.5376-1.5124 5.2765.2665-.609.5369-1.0553.7568-1.418.8091-1.3353.932-1.5381-2.3602-4.5499l-.0907.0907c.2736.2951.545.5652.8.8189 1.6391 1.6312 2.6018 2.5893-.8428 5.1919.3452-.7825.6815-1.2885.929-1.6608.2367-.3562.3921-.5901.3965-.8268.0083-.4529-.5369-.9159-2.1254-2.2652-.0726-.0617-.1475-.1253-.2245-.1908l-.0956.0956c.1602.2121.3597.4233.5634.6392 1.0201 1.0805 2.1481 2.2752-1.0021 4.2532.1492-.2665.2851-.4979.4049-.702.8809-1.5008.8926-1.5206-1.0285-3.1281l-1.9369-1.7963c-.2699.5032-.9148 1.0866-2.116 1.8409.0943-.1684.1832-.3247.2662-.4708.8606-1.5133 1.0893-1.9156.0865-3.0056z" fill="#ef7b4d"/><circle cx="76.6028" cy="81.6802" fill="#fefefe" r="2.77134" transform="matrix(.70710678 -.70710678 .70710678 .70710678 -35.320183 78.089936)"/><circle cx="76.2465" cy="81.4131" fill="#000" r=".944775" transform="matrix(.70710678 -.70710678 .70710678 .70710678 -35.235672 77.759762)"/><circle cx="82.3926" cy="75.8906" fill="#fefefe" r="2.77134" transform="matrix(.70710678 -.70710678 .70710678 .70710678 -29.530524 80.488208)"/><circle cx="82.0363" cy="75.623" fill="#000" r=".944775" transform="matrix(.70710678 -.70710678 .70710678 .70710678 -29.44566 80.157888)"/><path d="m81.7691 83.8179s1.4252 0 2.2268-.8017c.8017-.8017.8017-2.2269.8017-2.2269l.8907.8908c.8363.8363.8363 2.1922 0 3.0285s-2.1922.8363-3.0285 0z" fill="#fafafa"/><path d="m82.4817 84.5308s1.4252 0 2.2268-.8017c.8017-.8017.8017-2.2269.8017-2.2269l.1781.1782c.8363.8363.8363 2.1922 0 3.0285s-2.1922.8363-3.0285 0z" fill="#202124"/><path d="m76.9873 87.4124c-2.0626-.291-4.0524-1.2257-5.6451-2.8053-2.5667-2.5457-3.467-6.1364-2.6951-9.415" opacity=".16" stroke="#5e6294" stroke-linecap="round" stroke-width=".75582"/><g fill="#5e6294"><circle cx="68.9424" cy="73.6636" opacity=".45" r=".50388" transform="matrix(.70710678 -.70710678 .70710678 .70710678 -31.89527 70.325207)"/><rect height="5.79462" rx=".50388" transform="matrix(.70710678 -.70710678 .70710678 .70710678 -40.316295 72.263654)" width="1.13373" x="67.0718" y="84.7979"/><rect height="5.79462" rx=".50388" transform="matrix(.70710678 -.70710678 .70710678 .70710678 -22.501324 79.642798)" width="1.13373" x="84.8867" y="66.9829"/><path clip-rule="evenodd" d="m87.3362 86.4456c4.944-4.944 4.944-12.9599 0-17.9039s-12.9599-4.944-17.9039 0-4.944 12.9599 0 17.9039 12.9599 4.944 17.9039 0zm-.4453-.4454c4.698-4.698 4.698-12.3151 0-17.0131-4.6981-4.6981-12.3152-4.6981-17.0132 0-4.6981 4.698-4.6981 12.3151 0 17.0132 4.698 4.698 12.3151 4.698 17.0132-.0001z" fill-opacity=".2" fill-rule="evenodd"/></g><path d="m74.1121 75.0128c.3295.5085.243 1.1497-.193 1.4322s-1.0017.1774-1.3312-.331c-.3294-.5085-.2269-1.5011.2091-1.7836s.9857.1739 1.3151.6824z" fill="#f77f4f"/></g><path d="m75.0222 124.624 67.7448 96.666 14.461-14.46z" fill="url(#i)" opacity=".17"/><path d="m125.515 74.1309 96.666 67.7451-14.46 14.46z" fill="url(#j)" opacity=".43"/><path d="m231.154 201.872-26.293 26.293c-.582.582-1.284 1.03-2.056 1.312-.773.283-1.599.393-2.419.324-.82-.07-1.615-.318-2.329-.726-.714-.409-1.331-.969-1.806-1.641l-17.12-24.276 27.041-27.041 24.27 17.126c.673.477 1.234 1.095 1.644 1.812.409.717.656 1.514.724 2.337.067.822-.046 1.65-.332 2.424s-.738 1.476-1.324 2.056z" fill="url(#k)"/><path d="m109.463 108.578c2.952-2.952 2.952-7.738 0-10.6897-2.952-2.9518-7.738-2.9518-10.6894 0-2.9518 2.9517-2.9518 7.7377 0 10.6897 2.9514 2.951 7.7374 2.951 10.6894 0z" fill="#a1bff1"/><path d="m122.025 121.14c1.966-1.966 1.966-5.152 0-7.118-1.965-1.965-5.152-1.965-7.118 0-1.965 1.966-1.965 5.152 0 7.118 1.966 1.966 5.153 1.966 7.118 0z" fill="#5c74c6"/><path d="m203.419 178.87-6.344 6.344-67.332-57.206z" fill="url(#l)" opacity=".19"/><path d="m125.341 123.607 61.532 74.981c.842 1.047 1.894 1.904 3.09 2.517 1.195.613 2.506.967 3.847 1.04 1.341.072 2.683-.139 3.937-.619 1.255-.481 2.394-1.22 3.343-2.17.95-.949 1.689-2.088 2.169-3.342.481-1.254.691-2.596.618-3.937-.073-1.34-.428-2.651-1.042-3.845-.613-1.195-1.472-2.247-2.519-3.087z" fill="url(#m)"/><path d="m176.771 197.352c2.129 1.33 4.433 1.411 6.225 1.942l-16.652 16.652-108.4982-108.498c-10.2189-10.2209-17.774-22.7929-22.003-36.6135l-11.6071-37.9682c-.4145-1.3245-.4554-2.7376-.1183-4.0838s1.0392-2.5733 2.0289-3.5461c10.2889 22.2771 22.4255 43.6534 36.2824 63.9048 31.0003 45.2738 66.1903 78.0908 114.3423 108.2108z" fill="url(#n)" opacity=".23"/></svg>

<svg width="299" height="296" viewBox="0 0 299 296" fill="none" xmlns="http://www.w3.org/2000/svg">
<path opacity="0.9" d="M216.688 213.448L279.72 276.48" stroke="url(#paint0_linear)" stroke-width="37.3291" stroke-linecap="round"/>
<path opacity="0.9" d="M190.483 188.66L249.266 247.443" stroke="url(#paint1_linear)" stroke-width="3.00476" stroke-linecap="round"/>
<path opacity="0.9" d="M181.276 175.204L240.767 234.695" stroke="url(#paint2_linear)" stroke-width="3.00476" stroke-linecap="round"/>
<path opacity="0.9" d="M170.653 173.079L229.436 231.862" stroke="url(#paint3_linear)" stroke-width="3.00476" stroke-linecap="round"/>
<path d="M237.666 127.103L127.994 236.775L85.9239 178.308C76.687 165.433 72.3244 149.695 73.6144 133.902C74.9044 118.109 81.763 103.287 92.9669 92.0819C104.172 80.8755 118.994 74.0147 134.789 72.7235C150.583 71.4324 166.323 75.7949 179.199 85.0327L237.666 127.103Z" fill="#5C74C6"/>
<path d="M108.339 56.9547L216.837 165.452L166.344 215.946L57.8458 107.448C47.6269 97.2271 40.0717 84.6551 35.8428 70.8346L24.2356 32.8663C23.8313 31.5439 23.7944 30.1364 24.1289 28.7946C24.4634 27.4529 25.1567 26.2275 26.1345 25.2497C27.1123 24.2719 28.3377 23.5786 29.6795 23.244C31.0212 22.9095 32.4287 22.9464 33.7511 23.3508L71.7256 34.9517C85.5462 39.1806 98.1182 46.7358 108.339 56.9547Z" fill="url(#paint4_linear)"/>
<mask id="mask0" mask-type="alpha" maskUnits="userSpaceOnUse" x="62" y="61" width="31" height="31">
<path d="M88.2841 87.3993C94.2669 81.4165 94.2669 71.7163 88.2841 65.7335C82.3012 59.7506 72.6011 59.7506 66.6183 65.7335C60.6354 71.7163 60.6354 81.4165 66.6183 87.3993C72.6011 93.3822 82.3012 93.3822 88.2841 87.3993Z" fill="white"/>
</mask>
<g mask="url(#mask0)">
<circle cx="78.5833" cy="78.1763" r="17.027" transform="rotate(-45 78.5833 78.1763)" fill="white"/>
<circle opacity="0.2" cx="78.3843" cy="77.4937" r="9.6367" transform="rotate(-45 78.3843 77.4937)" fill="url(#paint5_linear)"/>
<path opacity="0.14" fill-rule="evenodd" clip-rule="evenodd" d="M86.8909 86.0002C91.5889 81.3022 91.5889 73.6851 86.8909 68.9871C82.1928 64.289 74.5757 64.289 69.8777 68.9871C65.1796 73.6851 65.1796 81.3022 69.8777 86.0002C74.5757 90.6983 82.1928 90.6983 86.8909 86.0002ZM85.1984 84.3078C88.9618 80.5445 88.9618 74.4428 85.1984 70.6795C81.4351 66.9161 75.3335 66.9161 71.5701 70.6795C67.8067 74.4428 67.8067 80.5445 71.5701 84.3078C75.3335 88.0712 81.4351 88.0712 85.1984 84.3078Z" fill="#5E6294"/>
<path d="M78.0607 84.9582C76.7249 85.4865 75.1446 85.2105 74.0642 84.13C73.0539 83.1198 72.7469 81.6726 73.1432 80.3967C70.7756 78.1451 70.7226 74.3777 73.0398 72.0605C75.3571 69.7432 79.1244 69.7963 81.3761 72.1639C82.6519 71.7676 84.0991 72.0746 85.1094 73.0848C86.1898 74.1653 86.4659 75.7456 85.9375 77.0814L89.8279 81.276C90.9178 82.2789 91.3201 82.0502 92.8335 81.1896C92.9795 81.1066 93.1359 81.0176 93.3042 80.9234C92.55 82.1246 91.9665 82.7695 91.4633 83.0394L93.2597 84.9762C94.8671 86.8973 94.887 86.8857 96.3877 86.0047C96.5918 85.885 96.8232 85.7491 97.0898 85.5998C95.1117 88.7501 93.917 87.6221 92.8365 86.602C92.6207 86.3982 92.4094 86.1988 92.1973 86.0386L92.1018 86.1341C92.1667 86.2105 92.2298 86.2848 92.291 86.3568L92.2925 86.3587C93.6418 87.9472 94.1049 88.4923 94.5578 88.484C94.7945 88.4797 95.0284 88.3242 95.3845 88.0875C95.7569 87.8401 96.2628 87.5038 97.0453 87.1586C94.4427 90.6031 93.4847 89.6404 91.8535 88.0014C91.5997 87.7464 91.3296 87.475 91.0346 87.2013L90.9438 87.2921C93.9557 90.5843 94.1585 90.4614 95.4937 89.6522C95.8564 89.4324 96.3028 89.1619 96.9117 88.8955C94.1729 92.319 93.174 91.5667 91.6352 90.4078C91.3626 90.2025 91.0731 89.9845 90.754 89.7746C90.9638 90.0938 91.1819 90.3833 91.3872 90.6559C92.5461 92.1946 93.2984 93.1935 89.8748 95.9324C90.1413 95.3234 90.4117 94.8771 90.6316 94.5144C91.4407 93.1791 91.5636 92.9763 88.2714 89.9645L88.1807 90.0552C88.4543 90.3503 88.7257 90.6204 88.9807 90.8741C90.6198 92.5053 91.5825 93.4634 88.1379 96.066C88.4831 95.2835 88.8194 94.7775 89.0669 94.4052C89.3036 94.049 89.459 93.8151 89.4634 93.5784C89.4717 93.1255 88.9265 92.6625 87.338 91.3132C87.2654 91.2515 87.1905 91.1879 87.1135 91.1224L87.0179 91.218C87.1781 91.4301 87.3776 91.6413 87.5813 91.8572C88.6014 92.9377 89.7294 94.1324 86.5792 96.1104C86.7284 95.8439 86.8643 95.6125 86.9841 95.4084C87.865 93.9076 87.8767 93.8878 85.9556 92.2803L84.0187 90.484C83.7488 90.9872 83.1039 91.5706 81.9027 92.3249C81.997 92.1565 82.0859 92.0002 82.1689 91.8541C83.0295 90.3408 83.2582 89.9385 82.2554 88.8485L78.0607 84.9582Z" fill="#EF7B4D"/>
<circle cx="76.6028" cy="81.6802" r="2.77134" transform="rotate(-45 76.6028 81.6802)" fill="#FEFEFE"/>
<circle cx="76.2465" cy="81.4131" r="0.944775" transform="rotate(-45 76.2465 81.4131)" fill="black"/>
<circle cx="82.3926" cy="75.8906" r="2.77134" transform="rotate(-45 82.3926 75.8906)" fill="#FEFEFE"/>
<circle cx="82.0363" cy="75.623" r="0.944775" transform="rotate(-45 82.0363 75.623)" fill="black"/>
<path d="M81.7691 83.8179C81.7691 83.8179 83.1943 83.8179 83.9959 83.0162C84.7976 82.2145 84.7976 80.7893 84.7976 80.7893L85.6883 81.6801C86.5246 82.5164 86.5246 83.8723 85.6883 84.7086C84.852 85.5449 83.4961 85.5449 82.6598 84.7086L81.7691 83.8179Z" fill="#FAFAFA"/>
<path d="M82.4817 84.5308C82.4817 84.5308 83.9069 84.5308 84.7085 83.7291C85.5102 82.9274 85.5102 81.5022 85.5102 81.5022L85.6883 81.6804C86.5246 82.5167 86.5246 83.8726 85.6883 84.7089C84.852 85.5452 83.4961 85.5452 82.6598 84.7089L82.4817 84.5308Z" fill="#202124"/>
<path opacity="0.16" d="M76.9873 87.4124C74.9247 87.1214 72.9349 86.1867 71.3422 84.6071C68.7755 82.0614 67.8752 78.4707 68.6471 75.1921" stroke="#5E6294" stroke-width="0.75582" stroke-linecap="round"/>
<circle opacity="0.45" cx="68.9424" cy="73.6636" r="0.50388" transform="rotate(-45 68.9424 73.6636)" fill="#5E6294"/>
<rect x="67.0718" y="84.7979" width="1.13373" height="5.79462" rx="0.50388" transform="rotate(-45 67.0718 84.7979)" fill="#5E6294"/>
<rect x="84.8867" y="66.9829" width="1.13373" height="5.79462" rx="0.50388" transform="rotate(-45 84.8867 66.9829)" fill="#5E6294"/>
<path fill-rule="evenodd" clip-rule="evenodd" d="M87.3362 86.4456C92.2802 81.5016 92.2802 73.4857 87.3362 68.5417C82.3922 63.5977 74.3763 63.5977 69.4323 68.5417C64.4883 73.4857 64.4883 81.5016 69.4323 86.4456C74.3763 91.3896 82.3922 91.3896 87.3362 86.4456ZM86.8909 86.0002C91.5889 81.3022 91.5889 73.6851 86.8909 68.9871C82.1928 64.289 74.5757 64.289 69.8777 68.9871C65.1796 73.6851 65.1796 81.3022 69.8777 86.0003C74.5757 90.6983 82.1928 90.6983 86.8909 86.0002Z" fill="#5E6294" fill-opacity="0.2"/>
<path d="M74.1121 75.0128C74.4416 75.5213 74.3551 76.1625 73.9191 76.445C73.4831 76.7275 72.9174 76.6224 72.5879 76.114C72.2585 75.6055 72.361 74.6129 72.797 74.3304C73.233 74.0479 73.7827 74.5043 74.1121 75.0128Z" fill="#F77F4F"/>
</g>
<path opacity="0.17" d="M75.0222 124.624L142.767 221.29L157.228 206.83L75.0222 124.624Z" fill="url(#paint6_linear)"/>
<path opacity="0.43" d="M125.515 74.1309L222.181 141.876L207.721 156.336L125.515 74.1309Z" fill="url(#paint7_linear)"/>
<path d="M231.154 201.872L204.861 228.165C204.279 228.747 203.577 229.195 202.805 229.477C202.032 229.76 201.206 229.87 200.386 229.801C199.566 229.731 198.771 229.483 198.057 229.075C197.343 228.666 196.726 228.106 196.251 227.434L179.131 203.158L206.172 176.117L230.442 193.243C231.115 193.72 231.676 194.338 232.086 195.055C232.495 195.772 232.742 196.569 232.81 197.392C232.877 198.214 232.764 199.042 232.478 199.816C232.192 200.59 231.74 201.292 231.154 201.872Z" fill="url(#paint8_linear)"/>
<path d="M109.463 108.578C112.415 105.626 112.415 100.84 109.463 97.8883C106.511 94.9365 101.725 94.9365 98.7736 97.8883C95.8218 100.84 95.8218 105.626 98.7736 108.578C101.725 111.529 106.511 111.529 109.463 108.578Z" fill="#A1BFF1"/>
<path d="M122.025 121.14C123.991 119.174 123.991 115.988 122.025 114.022C120.06 112.057 116.873 112.057 114.907 114.022C112.942 115.988 112.942 119.174 114.907 121.14C116.873 123.106 120.06 123.106 122.025 121.14Z" fill="#5C74C6"/>
<path opacity="0.19" d="M203.419 178.87L197.075 185.214L129.743 128.008L203.419 178.87Z" fill="url(#paint9_linear)"/>
<path d="M125.341 123.607L186.873 198.588C187.715 199.635 188.767 200.492 189.963 201.105C191.158 201.718 192.469 202.072 193.81 202.145C195.151 202.217 196.493 202.006 197.747 201.526C199.002 201.045 200.141 200.306 201.09 199.356C202.04 198.407 202.779 197.268 203.259 196.014C203.74 194.76 203.95 193.418 203.877 192.077C203.804 190.737 203.449 189.426 202.835 188.232C202.222 187.037 201.363 185.985 200.316 185.145L125.341 123.607Z" fill="url(#paint10_linear)"/>
<path opacity="0.23" d="M176.771 197.352C178.9 198.682 181.204 198.763 182.996 199.294L166.344 215.946L57.8458 107.448C47.6269 97.2271 40.0718 84.6551 35.8428 70.8345L24.2357 32.8663C23.8212 31.5418 23.7803 30.1287 24.1174 28.7825C24.4545 27.4363 25.1566 26.2092 26.1463 25.2364C36.4352 47.5135 48.5718 68.8898 62.4287 89.1412C93.429 134.415 128.619 167.232 176.771 197.352Z" fill="url(#paint11_linear)"/>
<defs>
<linearGradient id="paint0_linear" x1="148.028" y1="144.788" x2="279.72" y2="276.48" gradientUnits="userSpaceOnUse">
<stop stop-color="#EB5795"/>
<stop offset="1" stop-color="#EB5795" stop-opacity="0"/>
</linearGradient>
<linearGradient id="paint1_linear" x1="183.87" y1="182.047" x2="255.144" y2="253.321" gradientUnits="userSpaceOnUse">
<stop stop-color="#EB5795"/>
<stop offset="1" stop-color="#EB5795" stop-opacity="0"/>
</linearGradient>
<linearGradient id="paint2_linear" x1="174.583" y1="168.511" x2="246.716" y2="240.644" gradientUnits="userSpaceOnUse">
<stop stop-color="#EB5795"/>
<stop offset="1" stop-color="#EB5795" stop-opacity="0"/>
</linearGradient>
<linearGradient id="paint3_linear" x1="164.04" y1="166.466" x2="235.314" y2="237.74" gradientUnits="userSpaceOnUse">
<stop stop-color="#EB5795"/>
<stop offset="1" stop-color="#EB5795" stop-opacity="0"/>
</linearGradient>
<linearGradient id="paint4_linear" x1="44417.9" y1="24478.3" x2="48501.3" y2="20394.9" gradientUnits="userSpaceOnUse">
<stop stop-color="#D6E6FD"/>
<stop offset="1" stop-color="#D2E3FD"/>
</linearGradient>
<linearGradient id="paint5_linear" x1="78.3843" y1="67.8569" x2="83.9169" y2="86.8688" gradientUnits="userSpaceOnUse">
<stop stop-color="#5E6294"/>
<stop offset="1" stop-color="#878BB2"/>
</linearGradient>
<linearGradient id="paint6_linear" x1="165.863" y1="229.925" x2="68.6036" y2="132.666" gradientUnits="userSpaceOnUse">
<stop stop-color="#5C75C9"/>
<stop offset="1" stop-color="#2E419B"/>
</linearGradient>
<linearGradient id="paint7_linear" x1="33207.5" y1="24757.8" x2="20402.4" y2="11952.6" gradientUnits="userSpaceOnUse">
<stop stop-color="#5C75C9"/>
<stop offset="1" stop-color="#2E419B"/>
</linearGradient>
<linearGradient id="paint8_linear" x1="16781.9" y1="344.55" x2="18099" y2="1661.68" gradientUnits="userSpaceOnUse">
<stop stop-color="#373282"/>
<stop offset="0.44" stop-color="#323A8F"/>
<stop offset="1" stop-color="#2E419B"/>
</linearGradient>
<linearGradient id="paint9_linear" x1="24165.9" y1="18502" x2="17955.8" y2="12291.9" gradientUnits="userSpaceOnUse">
<stop stop-color="#5C75C9"/>
<stop offset="1" stop-color="#2E419B"/>
</linearGradient>
<linearGradient id="paint10_linear" x1="29315" y1="22861.6" x2="20588.7" y2="14135.3" gradientUnits="userSpaceOnUse">
<stop stop-color="#5C75C9"/>
<stop offset="1" stop-color="#2E419B"/>
</linearGradient>
<linearGradient id="paint11_linear" x1="185.437" y1="209.777" x2="23.0931" y2="47.4329" gradientUnits="userSpaceOnUse">
<stop stop-color="#5C75C9"/>
<stop offset="1" stop-color="#D2E3FD"/>
</linearGradient>
</defs>
</svg>
